app/dist/common/images/hubei-biocause-ph.svg

<svg height="18" viewBox="0 0 18 18" width="18" xmlns="http://www.w3.org/2000/svg"><path d="m0 0h18v18h-18z" fill="#f0f3fa"/><path d="m9.5 13h-4.5v-4.5a4.5 4.5 0 1 1 4.5 4.5zm3-7h-5.1v2h2.6v2.6h2.5zm-7.2 2h2.1v2.6h2.6v2.1h-4.7z" fill="#48a0e3" fill-rule="evenodd"/></svg>

<!-- by TradingView --><svg width="18" height="18" viewBox="0 0 18 18" xmlns="http://www.w3.org/2000/svg"><path fill="#F0F3FA" d="M0 0h18v18H0z"/><path fill-rule="evenodd" d="M9.5 13H5V8.5A4.5 4.5 0 1 1 9.5 13Zm3-7H7.4v2H10v2.6h2.5V6ZM5.3 8h2.1v2.6H10v2.1H5.3V8Z" fill="#48A0E3"/></svg>
